Suru++-Ubuntu/animations/24/brasero-disc-70.svg

<!-- Created with Inkscape (http://www.inkscape.org/) -->
<svg width="24" height="24" version="1.0" xmlns="http://www.w3.org/2000/svg" xmlns:xlink="http://www.w3.org/1999/xlink">
 <path d="m12 1c-6.0719999 0-11 4.9280001-11 11 0 1.233375 0.2266195 2.416178 0.6015625 3.523438l6.5312505-2.105469c-0.1649628-0.445713-0.257813-0.915131-0.257813-1.417969 1e-7 -2.277 1.848-4.125 4.125-4.125zm-10.269531 14.910156c0.1520385 0.39967 0.3198794 0.784315 0.515625 1.160157-0.1994845-0.37684-0.3651929-0.769074-0.515625-1.160157zm1.5039062 2.707032c0.2035407 0.269035 0.4176443 0.524485 0.6445313 0.773437-0.2220588-0.244556-0.4449687-0.509594-0.6445313-0.773437zm7.433594 4.296874c0.438681 0.053283 0.879044 0.085938 1.332031 0.085938-0.453362 0-0.89295-0.03255-1.332031-0.08594z" style="fill-rule:evenodd;fill:#ffffff;opacity:.5"/>
 <path d="m12 1v6.875c2.277 1e-7 4.125 1.848 4.125 4.125s-1.848 4.125-4.125 4.125c-1.357829 0-2.556775-0.662381-3.308594-1.675781-0.241593-0.327137-0.427398-0.667645-0.558593-1.03125l-6.5742192 2.105469c0.3560425 1.053823 0.8940332 2.065625 1.5898437 3.007812 2.0041519 2.710058 5.2246635 4.46875 8.8515625 4.46875 6.072 0 11-4.928 11-11 0-6.0719999-4.928-11-11-11z" style="fill:#ffffff"/>
</svg>

<?xml version="1.0" encoding="UTF-8" standalone="no"?>
<!-- Created with Inkscape (http://www.inkscape.org/) -->

<svg
   xmlns:dc="http://purl.org/dc/elements/1.1/"
   xmlns:cc="http://creativecommons.org/ns#"
   xmlns:rdf="http://www.w3.org/1999/02/22-rdf-syntax-ns#"
   xmlns:svg="http://www.w3.org/2000/svg"
   xmlns="http://www.w3.org/2000/svg"
   xmlns:xlink="http://www.w3.org/1999/xlink"
   xmlns:sodipodi="http://sodipodi.sourceforge.net/DTD/sodipodi-0.dtd"
   xmlns:inkscape="http://www.inkscape.org/namespaces/inkscape"
   version="1.0"
   width="24"
   height="24"
   id="svg2"
   sodipodi:docname="brasero-disc-70.svg"
   inkscape:version="0.92.2 (unknown)">
  <metadata
     id="metadata14">
    <rdf:RDF>
      <cc:Work
         rdf:about="">
        <dc:format>image/svg+xml</dc:format>
        <dc:type
           rdf:resource="http://purl.org/dc/dcmitype/StillImage" />
        <dc:title></dc:title>
      </cc:Work>
    </rdf:RDF>
  </metadata>
  <sodipodi:namedview
     pagecolor="#ffffff"
     bordercolor="#666666"
     borderopacity="1"
     objecttolerance="10"
     gridtolerance="10"
     guidetolerance="10"
     inkscape:pageopacity="0"
     inkscape:pageshadow="2"
     inkscape:window-width="1461"
     inkscape:window-height="906"
     id="namedview12"
     showgrid="false"
     inkscape:zoom="10.727273"
     inkscape:cx="-4.074985"
     inkscape:cy="11"
     inkscape:window-x="0"
     inkscape:window-y="34"
     inkscape:window-maximized="0"
     inkscape:current-layer="svg2" />
  <defs
     id="defs4">
    <linearGradient
       id="linearGradient3587-6-5">
      <stop
         id="stop3589-9-2"
         style="stop-color:#e6e6e6;stop-opacity:1"
         offset="0" />
      <stop
         id="stop3591-7-4"
         style="stop-color:#ffffff;stop-opacity:1"
         offset="1" />
    </linearGradient>
    <linearGradient
       x1="15.669166"
       y1="-2.6219723"
       x2="15.669166"
       y2="11.969362"
       id="linearGradient2485"
       xlink:href="#linearGradient3587-6-5"
       gradientUnits="userSpaceOnUse"
       gradientTransform="matrix(0.9302326,0,0,1.2359551,-11.575969,5.1536003)" />
    <linearGradient
       x1="35.007519"
       y1="23.178743"
       x2="35.007519"
       y2="4.9945626"
       id="linearGradient2488"
       xlink:href="#linearGradient3587-6-5"
       gradientUnits="userSpaceOnUse"
       gradientTransform="translate(-25.785715,-3.035714)" />
  </defs>
  <path
     d="M 12,1 C 5.9280001,1 0.9999997,5.9280001 1,12 c 0,1.233375 0.2266195,2.416178 0.6015625,3.523438 L 8.132813,13.417969 C 7.9678502,12.972256 7.875,12.502838 7.875,12 7.8750001,9.723 9.723,7.875 12,7.875 Z M 1.7304688,15.910156 c 0.1520385,0.39967 0.3198794,0.784315 0.515625,1.160157 -0.1994845,-0.37684 -0.3651929,-0.769074 -0.515625,-1.160157 z m 1.5039062,2.707032 c 0.2035407,0.269035 0.4176443,0.524485 0.6445313,0.773437 C 3.6568475,19.146069 3.4339376,18.881031 3.234375,18.617188 Z m 7.433594,4.296874 C 11.10665,22.967345 11.547013,23 12,23 11.546638,23 11.10705,22.96745 10.667969,22.91406 Z"
     id="path3170"
     style="display:inline;overflow:visible;visibility:visible;opacity:0.5;fill:#ffffff;fill-opacity:1;fill-rule:evenodd;stroke:none;stroke-width:1.375;stroke-linecap:butt;stroke-linejoin:miter;stroke-miterlimit:4;stroke-dasharray:none;stroke-dashoffset:0;stroke-opacity:1;marker:none;marker-start:none;marker-mid:none;marker-end:none;enable-background:accumulate"
     inkscape:connector-curvature="0" />
  <path
     d="m 12,1 v 6.875 c 2.277,1e-7 4.125,1.848 4.125,4.125 0,2.277 -1.848,4.125 -4.125,4.125 -1.357829,0 -2.556775,-0.662381 -3.308594,-1.675781 C 8.449813,14.122082 8.264008,13.781574 8.132813,13.417969 L 1.5585938,15.523438 C 1.9146363,16.577261 2.452627,17.589063 3.1484375,18.53125 5.1525894,21.241308 8.373101,23 12,23 18.072,23 23,18.072 23,12 23,5.9280001 18.072,1.0000003 12,1 Z"
     id="path3288"
     style="display:inline;overflow:visible;visibility:visible;opacity:1;fill:#ffffff;fill-opacity:1;fill-rule:nonzero;stroke:none;stroke-width:1.375;stroke-linecap:butt;stroke-linejoin:miter;stroke-miterlimit:4;stroke-dasharray:none;stroke-dashoffset:0;stroke-opacity:1;marker:none;marker-start:none;marker-mid:none;marker-end:none;enable-background:accumulate"
     inkscape:connector-curvature="0" />
</svg>
